X:189
T:Excuse Me. WCD3/1.189
M:6/4
L:1/4
Z:vmp. Peter Dunk 2013 www.village-music-project.org.uk
B:Walsh, Compleat Country Dancing Master, 3rd Series, 1st Book, 4th Ed., 1754
Q:3/4=90
K:Gm
G2G G2g|f2e d2e|f3/g/f cdB|A3F3|f3/e/d e3/d/c|
d3/e/d c3/B/A|B3/A/G A^F2|G3-G3||B2c dBG|B2c dBG|
B2c d2g|^f3d3||ABc c3/d/c|f2c A2A|Bcd d3/e/d|
g2f =e3/d/c|f2f f3/e/d|c2B A2^f|g3/a/g gdc|B3G3|]

